blockchains/ethereum/assets/0x9f8F72aA9304c8B593d555F12eF6589cC3A579A2/logo.svg

<svg fill="none" height="250" viewBox="0 0 250 250" width="250" xmlns="http://www.w3.org/2000/svg" xmlns:xlink="http://www.w3.org/1999/xlink"><linearGradient id="a" gradientUnits="userSpaceOnUse" x1="125" x2="125" y1="0" y2="250"><stop offset="0" stop-color="#4fa89b"/><stop offset="1" stop-color="#6acebb"/></linearGradient><clipPath id="b"><path d="m0 0h250v250h-250z"/></clipPath><g clip-path="url(#b)"><path d="m125 250c69.036 0 125-55.964 125-125 0-69.0356-55.964-125-125-125-69.0356 0-125 55.9644-125 125 0 69.036 55.9644 125 125 125z" fill="url(#a)"/><path d="m63.4749 162.5v-58.833l44.6171 33.579v25.254h11.387v-27.625c-.002-1.026-.242-2.039-.701-2.957s-1.125-1.717-1.945-2.335l-54.1081-40.737c-.9897-.7351-2.1638-1.1813-3.3918-1.2892-1.2281-.1078-2.462.1269-3.5647.6783-1.1026.5513-2.0308 1.3976-2.6814 2.4447-.6505 1.0472-.998 2.2542-1.0037 3.487v68.3332zm123.3921 0v-58.833l-44.617 33.579v25.254h-11.388v-27.625c.003-1.026.243-2.039.702-2.957s1.124-1.717 1.944-2.335l54.109-40.7203c.988-.7343 2.161-1.1804 3.387-1.2889 1.227-.1085 2.46.1248 3.562.6741s2.03 1.3932 2.682 2.4379c.652 1.0448 1.001 2.2496 1.01 3.481v68.3332z" fill="#fff"/></g></svg>

<svg width="250" height="250" viewBox="0 0 250 250" fill="none" xmlns="http://www.w3.org/2000/svg">
<g clip-path="url(#clip0_30_643)">
<path d="M125 250C194.036 250 250 194.036 250 125C250 55.9644 194.036 0 125 0C55.9644 0 0 55.9644 0 125C0 194.036 55.9644 250 125 250Z" fill="url(#paint0_linear_30_643)"/>
<path d="M63.4749 162.5V103.667L108.092 137.246V162.5H119.479V134.875C119.477 133.849 119.237 132.836 118.778 131.918C118.319 131 117.653 130.201 116.833 129.583L62.7249 88.846C61.7352 88.1109 60.5611 87.6647 59.3331 87.5568C58.105 87.449 56.8711 87.6837 55.7684 88.2351C54.6658 88.7864 53.7376 89.6327 53.087 90.6798C52.4365 91.727 52.089 92.934 52.0833 94.1668V162.5H63.4749ZM186.867 162.5V103.667L142.25 137.246V162.5H130.862V134.875C130.865 133.849 131.105 132.836 131.564 131.918C132.023 131 132.688 130.201 133.508 129.583L187.617 88.8627C188.605 88.1284 189.778 87.6823 191.004 87.5738C192.231 87.4653 193.464 87.6986 194.566 88.2479C195.668 88.7972 196.596 89.6411 197.248 90.6858C197.9 91.7306 198.249 92.9354 198.258 94.1668V162.5H186.867Z" fill="white"/>
</g>
<defs>
<linearGradient id="paint0_linear_30_643" x1="125" y1="0" x2="125" y2="250" gradientUnits="userSpaceOnUse">
<stop stop-color="#4FA89B"/>
<stop offset="1" stop-color="#6ACEBB"/>
</linearGradient>
<clipPath id="clip0_30_643">
<rect width="250" height="250" fill="white"/>
</clipPath>
</defs>
</svg>
